Sources/FrostedUI/Resources/Icons.xcassets/gamepadFilled20.imageset/gamepad-filled-20.svg

<svg width="20" height="20" viewBox="0 0 20 20" fill="none" xmlns="http://www.w3.org/2000/svg" data-fui-icon="true">
  <path
    d="M13.5437 2.75C16.4642 2.7501 18.9208 4.93955 19.2556 7.84082L19.9236 13.6279C20.1459 15.5573 18.6373 17.2498 16.6951 17.25H16.3328C15.6297 17.2499 14.945 17.0215 14.3826 16.5996L12.7166 15.3496C12.4137 15.1226 12.0452 15 11.6667 15H8.33374C7.95518 15 7.58582 15.1225 7.28296 15.3496L5.61597 16.5996C5.05352 17.0214 4.36975 17.2499 3.66675 17.25H3.30444C1.36234 17.2497 -0.14639 15.5573 0.0759277 13.6279L0.743896 7.84082C1.0787 4.93959 3.53536 2.75018 6.45581 2.75H13.5437ZM6.87476 6.4375C6.46072 6.43766 6.12482 6.77344 6.12476 7.1875V8.3125H4.99976C4.58572 8.31266 4.24982 8.64844 4.24976 9.0625C4.24976 9.47662 4.58568 9.81234 4.99976 9.8125H6.12476V10.9375C6.12476 11.3516 6.46068 11.6873 6.87476 11.6875C7.28891 11.6874 7.62476 11.3517 7.62476 10.9375V9.8125H8.74976C9.16391 9.81243 9.49976 9.47667 9.49976 9.0625C9.49969 8.64838 9.16387 8.31257 8.74976 8.3125H7.62476V7.1875C7.62469 6.77338 7.28887 6.43757 6.87476 6.4375ZM12.4998 9.5C11.9476 9.50016 11.4998 9.94787 11.4998 10.5C11.4998 11.0521 11.9476 11.4998 12.4998 11.5C13.0518 11.4998 13.4997 11.0521 13.4998 10.5C13.4997 9.94789 13.0518 9.5002 12.4998 9.5ZM14.4998 6.5C13.9476 6.50016 13.4998 6.94787 13.4998 7.5C13.4998 8.05213 13.9476 8.49984 14.4998 8.5C15.0519 8.49993 15.4997 8.05219 15.4998 7.5C15.4997 6.94781 15.0519 6.50007 14.4998 6.5Z"
    fill="currentColor"
  />
</svg>

<svg xmlns="http://www.w3.org/2000/svg" width="20" height="20" fill="none" data-fui-icon="true" viewBox="0 0 20 20"><path fill="currentColor" d="M13.544 2.75a5.75 5.75 0 0 1 5.712 5.09l.668 5.788a3.25 3.25 0 0 1-3.229 3.622h-.362a3.25 3.25 0 0 1-1.95-.65l-1.666-1.25a1.75 1.75 0 0 0-1.05-.35H8.334c-.379 0-.748.123-1.051.35L5.616 16.6a3.25 3.25 0 0 1-1.95.65h-.362a3.25 3.25 0 0 1-3.228-3.622L.744 7.84A5.75 5.75 0 0 1 6.456 2.75zm-6.67 3.688a.75.75 0 0 0-.75.75v1.125H5a.75.75 0 0 0 0 1.5h1.125v1.124a.75.75 0 0 0 1.5 0V9.814H8.75a.75.75 0 0 0 0-1.5H7.625V7.187a.75.75 0 0 0-.75-.75M12.5 9.5a1 1 0 1 0 0 2 1 1 0 0 0 0-2m2-3a1 1 0 1 0 0 2 1 1 0 0 0 0-2"/></svg>
